X:4017
T:Marquis of Huntley's Highland Fling
O:england
M:4/4
L:1/8
R:Strathspey
K:D
A|"D"d<d f>d "A"g>e"D"f>d|"G"B<B e>d "A"c<AA>c|"D"d<d f>d "A"g>e"D"f>d|"
G"B>e "A"d/c/B/A/ "D"d2 d:|
|:B|"D"A>D F/E/D "D"A>Bd>f|"G"g>ef>d "A"e>dBd|"D"A>D F/E/D A>Bd>b|"A"a<f
e>f "D"d2 d:|


